groups/sulfur/sulfonate.svg

<?xml version='1.0' encoding='iso-8859-1'?>
<svg version='1.1' baseProfile='full'
              xmlns='http://www.w3.org/2000/svg'
                      xmlns:rdkit='http://www.rdkit.org/xml'
                      xmlns:xlink='http://www.w3.org/1999/xlink'
                  xml:space='preserve'
width='256px' height='256px' viewBox='0 0 256 256'>
<!-- END OF HEADER -->
<rect style='opacity:1.0;fill:#FFFFFF;stroke:none' width='256.0' height='256.0' x='0.0' y='0.0'> </rect>
<path class='bond-0 atom-0 atom-1' d='M 127.8,20.3 L 127.8,102.6' style='fill:none;fill-rule:evenodd;stroke:#000000;stroke-width:2.0px;stroke-linecap:butt;stroke-linejoin:miter;stroke-opacity:1' />
<path class='bond-1 atom-1 atom-2' d='M 112.6,110.5 L 45.6,110.5' style='fill:none;fill-rule:evenodd;stroke:#000000;stroke-width:2.0px;stroke-linecap:butt;stroke-linejoin:miter;stroke-opacity:1' />
<path class='bond-1 atom-1 atom-2' d='M 112.6,125.1 L 45.6,125.1' style='fill:none;fill-rule:evenodd;stroke:#000000;stroke-width:2.0px;stroke-linecap:butt;stroke-linejoin:miter;stroke-opacity:1' />
<path class='bond-2 atom-1 atom-3' d='M 143.0,125.1 L 210.0,125.1' style='fill:none;fill-rule:evenodd;stroke:#000000;stroke-width:2.0px;stroke-linecap:butt;stroke-linejoin:miter;stroke-opacity:1' />
<path class='bond-2 atom-1 atom-3' d='M 143.0,110.5 L 210.0,110.5' style='fill:none;fill-rule:evenodd;stroke:#000000;stroke-width:2.0px;stroke-linecap:butt;stroke-linejoin:miter;stroke-opacity:1' />
<path class='bond-3 atom-1 atom-4' d='M 127.8,141.0 L 127.8,200.0' style='fill:none;fill-rule:evenodd;stroke:#000000;stroke-width:2.0px;stroke-linecap:butt;stroke-linejoin:miter;stroke-opacity:1' />
<path class='atom-1' d='M79.0712,20.3424 C79.0712,23.997 83.9441,23.997 83.9441,20.3424 C83.9441,16.6877 88.8169,16.6877 88.8169,20.3424 C88.8169,23.997 93.6898,23.997 93.6898,20.3424 C93.6898,16.6877 98.5627,16.6877 98.5627,20.3424 C98.5627,23.997 103.436,23.997 103.436,20.3424 C103.436,16.6877 108.308,16.6877 108.308,20.3424 C108.308,23.997 113.181,23.997 113.181,20.3424 C113.181,16.6877 118.054,16.6877 118.054,20.3424 C118.054,23.997 122.927,23.997 122.927,20.3424 C122.927,16.6877 127.8,16.6877 127.8,20.3424 C127.8,23.997 132.673,23.997 132.673,20.3424 C132.673,16.6877 137.546,16.6877 137.546,20.3424 C137.546,23.997 142.419,23.997 142.419,20.3424 C142.419,16.6877 147.292,16.6877 147.292,20.3424 C147.292,23.997 152.164,23.997 152.164,20.3424 C152.164,16.6877 157.037,16.6877 157.037,20.3424 C157.037,23.997 161.91,23.997 161.91,20.3424 C161.91,16.6877 166.783,16.6877 166.783,20.3424 C166.783,23.997 171.656,23.997 171.656,20.3424 C171.656,16.6877 176.529,16.6877 176.529,20.3424' style='fill:none;stroke:#7F7F7F;stroke-width:2.0px;stroke-linecap:butt;stroke-linejoin:miter;stroke-opacity:1' />
<text x='115.8' y='137.8' class='atom-1' style='font-size:40px;font-style:normal;font-weight:normal;fill-opacity:1;stroke:none;font-family:sans-serif;text-anchor:start;fill:#000000' >S</text>
<text x='18.3' y='137.8' class='atom-2' style='font-size:40px;font-style:normal;font-weight:normal;fill-opacity:1;stroke:none;font-family:sans-serif;text-anchor:start;fill:#000000' >O</text>
<text x='213.3' y='137.8' class='atom-3' style='font-size:40px;font-style:normal;font-weight:normal;fill-opacity:1;stroke:none;font-family:sans-serif;text-anchor:start;fill:#000000' >O</text>
<text x='115.8' y='235.3' class='atom-4' style='font-size:40px;font-style:normal;font-weight:normal;fill-opacity:1;stroke:none;font-family:sans-serif;text-anchor:start;fill:#000000' >O</text>
<text x='143.4' y='235.3' class='atom-4' style='font-size:40px;font-style:normal;font-weight:normal;fill-opacity:1;stroke:none;font-family:sans-serif;text-anchor:start;fill:#000000' >H</text>
</svg>

<svg height="256" viewBox="0 0 256 256" width="256" xmlns="http://www.w3.org/2000/svg"><path d="m0 0h256v256h-256z" fill="#fff"/><g fill="none" stroke-width="2"><path d="m127.8 20.3v82.3" stroke="#000"/><path d="m112.6 110.5h-67" stroke="#000"/><path d="m112.6 125.1h-67" stroke="#000"/><path d="m143 125.1h67" stroke="#000"/><path d="m143 110.5h67" stroke="#000"/><path d="m127.8 141v59" stroke="#000"/><path d="m79.071 20.342c0 3.655 4.873 3.655 4.873 0 0-3.654 4.873-3.654 4.873 0 0 3.655 4.873 3.655 4.873 0 0-3.654 4.873-3.654 4.873 0 0 3.655 4.873 3.655 4.873 0 0-3.654 4.872-3.654 4.872 0 0 3.655 4.873 3.655 4.873 0 0-3.654 4.873-3.654 4.873 0 0 3.655 4.873 3.655 4.873 0 0-3.654 4.873-3.654 4.873 0 0 3.655 4.873 3.655 4.873 0 0-3.654 4.873-3.654 4.873 0 0 3.655 4.873 3.655 4.873 0 0-3.654 4.873-3.654 4.873 0 0 3.655 4.872 3.655 4.872 0 0-3.654 4.873-3.654 4.873 0 0 3.655 4.873 3.655 4.873 0 0-3.654 4.873-3.654 4.873 0 0 3.655 4.873 3.655 4.873 0 0-3.654 4.873-3.654 4.873 0" stroke="#7f7f7f"/></g><text font-family="sans-serif" font-size="40" x="115.8" y="137.8">S</text><text font-family="sans-serif" font-size="40" x="18.3" y="137.8">O</text><text font-family="sans-serif" font-size="40" x="213.3" y="137.8">O</text><text font-family="sans-serif" font-size="40" x="115.8" y="235.3">O</text><text font-family="sans-serif" font-size="40" x="143.4" y="235.3">H</text></svg>
